X: 10
T: James Byrne's
Z: NylonFlute
S: https://thesession.org/tunes/266#setting49146
R: slip jig
M: 9/8
L: 1/8
K: Dmaj
|:dfa afd dcd|Bcd efd cBA|dfa afd dcd|1 Bcd ecA d2A:|2 Bcd ecA d2f||
|:ecA AEA cBA|d2e fdf agf|ecA AEA cBA|1 d2e fdc def:|2 d2e fdc dA||

%-------------------- TUNE SEPARATOR --------------------%

